Numix-GalliumOS/48/mimetypes/application-document-template.svg

<?xml version="1.0" encoding="UTF-8" standalone="no"?>
<svg
   xmlns:dc="http://purl.org/dc/elements/1.1/"
   xmlns:cc="http://creativecommons.org/ns#"
   xmlns:rdf="http://www.w3.org/1999/02/22-rdf-syntax-ns#"
   xmlns:svg="http://www.w3.org/2000/svg"
   xmlns="http://www.w3.org/2000/svg"
   xmlns:sodipodi="http://sodipodi.sourceforge.net/DTD/sodipodi-0.dtd"
   xmlns:inkscape="http://www.inkscape.org/namespaces/inkscape"
   width="48"
   viewBox="0 0 48 48"
   height="48"
   id="svg2"
   version="1.1"
   inkscape:version="0.48.5 r10040"
   sodipodi:docname="application-document-template.svg">
  <metadata
     id="metadata30">
    <rdf:RDF>
      <cc:Work
         rdf:about="">
        <dc:format>image/svg+xml</dc:format>
        <dc:type
           rdf:resource="http://purl.org/dc/dcmitype/StillImage" />
      </cc:Work>
    </rdf:RDF>
  </metadata>
  <defs
     id="defs28" />
  <sodipodi:namedview
     pagecolor="#ffffff"
     bordercolor="#666666"
     borderopacity="1"
     objecttolerance="10"
     gridtolerance="10"
     guidetolerance="10"
     inkscape:pageopacity="0"
     inkscape:pageshadow="2"
     inkscape:window-width="1280"
     inkscape:window-height="970"
     id="namedview26"
     showgrid="true"
     inkscape:zoom="32"
     inkscape:cx="29.313068"
     inkscape:cy="20.701452"
     inkscape:window-x="0"
     inkscape:window-y="0"
     inkscape:window-maximized="1"
     inkscape:current-layer="svg2">
    <inkscape:grid
       type="xygrid"
       id="grid3030" />
  </sodipodi:namedview>
  <path
     style="fill:#dcdcdc"
     d="M 8 1 C 6.9714285 1 6 1.9714285 6 3 L 6 14 L 6 45 C 6 45.971429 7.0285714 47 8 47 L 40 47 C 40.971429 47 42 45.971429 42 45 L 42 14 L 42 3 C 42 1.9714285 41.028571 1 40 1 L 29 1 L 19 1 L 8 1 z "
     id="path4" />
  <g
     transform="translate(-0.99999973,-1.9999999)"
     id="g10-2">
    <rect
       width="8"
       x="16"
       y="17"
       rx="0.579"
       height="7"
       ry="0.60100001"
       style="fill:#888888"
       id="rect12" />
  </g>
  <path
     style="fill:#555555;stroke:#888888;stroke-width:1;stroke-linecap:round;stroke-linejoin:round;stroke-dashoffset:0.774"
     inkscape:connector-curvature="0"
     id="path16-3"
     d="m 25.5,15.5 6,0"
     sodipodi:nodetypes="cc" />
  <path
     style="fill:#555555;stroke:#888888;stroke-width:1;stroke-linecap:round;stroke-linejoin:round;stroke-dashoffset:0.774"
     inkscape:connector-curvature="0"
     id="path22-6"
     d="m 15.5,24.5 16,0" />
  <path
     style="fill:#555555;stroke:#888888;stroke-width:1;stroke-linecap:round;stroke-linejoin:round;stroke-dashoffset:0.774"
     inkscape:connector-curvature="0"
     id="path24-9"
     d="m 15.5,27.5 16,0" />
  <path
     style="fill:#555555;stroke:#888888;stroke-width:1;stroke-linecap:round;stroke-linejoin:round;stroke-dashoffset:0.774"
     inkscape:connector-curvature="0"
     id="path26"
     d="m 15.5,30.5 16,0" />
  <path
     style="fill:#555555;stroke:#888888;stroke-width:1;stroke-linecap:round;stroke-linejoin:round;stroke-dashoffset:0.774"
     inkscape:connector-curvature="0"
     id="path28"
     d="m 15.5,33.5 16,0" />
  <path
     style="fill:#555555;stroke:#888888;stroke-width:1;stroke-linecap:round;stroke-linejoin:round;stroke-dashoffset:0.774"
     inkscape:connector-curvature="0"
     id="path16-1"
     d="m 25.5,18.5 6,0"
     sodipodi:nodetypes="cc" />
  <path
     style="fill:#555555;stroke:#888888;stroke-width:1;stroke-linecap:round;stroke-linejoin:round;stroke-dashoffset:0.774"
     inkscape:connector-curvature="0"
     id="path16-1-8"
     d="m 25.5,21.5 6,0"
     sodipodi:nodetypes="cc" />
</svg>

<svg xmlns="http://www.w3.org/2000/svg" viewBox="0 0 48 48">
 <path d="m 8 1 c -1.029 0 -2 0.971 -2 2 l 0 11 l 0 31 c 0 0.971 1.029 2 2 2 l 32 0 c 0.971 0 2 -1.029 2 -2 l 0 -31 l 0 -11 c 0 -1.029 -0.971 -2 -2 -2 l -11 0 l -10 0 l -11 0 z" style="fill:#dcdcdc"/>
 <rect ry="0.601" height="7" rx="0.579" y="15" x="15" width="8" style="fill:#888"/>
 <path d="m 25.5 15.5 6 0" style="fill:#888;fill-opacity:1;stroke:#888;stroke-linecap:round;stroke-linejoin:round;stroke-width:1;stroke-dashoffset:0.774"/>
 <path d="m 15.5 24.5 16 0" style="fill:#888;fill-opacity:1;stroke:#888;stroke-linecap:round;stroke-linejoin:round;stroke-width:1;stroke-dashoffset:0.774"/>
 <path d="m 15.5 27.5 16 0" style="fill:#888;fill-opacity:1;stroke:#888;stroke-linecap:round;stroke-linejoin:round;stroke-width:1;stroke-dashoffset:0.774"/>
 <path d="m 15.5 30.5 16 0" style="fill:#888;fill-opacity:1;stroke:#888;stroke-linecap:round;stroke-linejoin:round;stroke-width:1;stroke-dashoffset:0.774"/>
 <path d="m 15.5 33.5 16 0" style="fill:#888;fill-opacity:1;stroke:#888;stroke-linecap:round;stroke-linejoin:round;stroke-width:1;stroke-dashoffset:0.774"/>
 <path d="m 25.5 18.5 6 0" style="fill:#888;fill-opacity:1;stroke:#888;stroke-linecap:round;stroke-linejoin:round;stroke-width:1;stroke-dashoffset:0.774"/>
 <path d="m 25.5 21.5 6 0" style="fill:#888;fill-opacity:1;stroke:#888;stroke-linecap:round;stroke-linejoin:round;stroke-width:1;stroke-dashoffset:0.774"/>
</svg>
